X: 1284
T: The Musical Priest
R:Reel
N:Collected by McFadden
B:O'Neill's 1284
Z:Transcribed by Trish O'Neil
M:C|
L:1/8
K:Bm
BA|FBBA BABd|cBAf ecBA|FB{c}BAB2(Bd)|cBAc "H"B2:|
(Bc)|d2(dc) dfed|cAeg faec|d2(dc) defb|afecB2(Bc)|
dcdc dfed|cAeg faec|dcBc defb|afecB2||
(Bc|d>B (3BBB bafb|afec ABce|d>B (3BBB bafb|afecB2(de)|
fbbc' bafb|afec ABce|dcBc defb|afec dB"D.C."cA|]


